build/img/sprite_auto.svg

<svg xmlns="http://www.w3.org/2000/svg" xmlns:xlink="http://www.w3.org/1999/xlink"><symbol id="icon-facebook-white" viewBox="0 0 8 15">
<path d="M5.33333 8.625H7.2381L8 5.625H5.33333V4.125C5.33333 3.3525 5.33333 2.625 6.85714 2.625H8V0.105C7.75162 0.0727501 6.81371 0 5.82324 0C3.75467 0 2.28571 1.24275 2.28571 3.525V5.625H0V8.625H2.28571V15H5.33333V8.625Z" fill="white"/>
</symbol><symbol id="icon-instagram-white" viewBox="0 0 15 15">
<path d="M7.5 0C9.53775 0 9.792 0.00749996 10.5915 0.045C11.3903 0.0825 11.934 0.20775 12.4125 0.39375C12.9075 0.58425 13.3245 0.84225 13.7415 1.2585C14.1229 1.63342 14.418 2.08694 14.6063 2.5875C14.7915 3.06525 14.9175 3.60975 14.955 4.4085C14.9903 5.208 15 5.46225 15 7.5C15 9.53775 14.9925 9.792 14.955 10.5915C14.9175 11.3903 14.7915 11.934 14.6063 12.4125C14.4185 12.9133 14.1233 13.367 13.7415 13.7415C13.3665 14.1227 12.913 14.4178 12.4125 14.6063C11.9347 14.7915 11.3903 14.9175 10.5915 14.955C9.792 14.9903 9.53775 15 7.5 15C5.46225 15 5.208 14.9925 4.4085 14.955C3.60975 14.9175 3.066 14.7915 2.5875 14.6063C2.08674 14.4184 1.63315 14.1232 1.2585 13.7415C0.877055 13.3666 0.581949 12.9131 0.39375 12.4125C0.20775 11.9347 0.0825 11.3903 0.045 10.5915C0.00974996 9.792 0 9.53775 0 7.5C0 5.46225 0.00749996 5.208 0.045 4.4085C0.0825 3.609 0.20775 3.066 0.39375 2.5875C0.581427 2.08663 0.876603 1.63299 1.2585 1.2585C1.63325 0.876923 2.08682 0.581797 2.5875 0.39375C3.066 0.20775 3.609 0.0825 4.4085 0.045C5.208 0.00974996 5.46225 0 7.5 0ZM7.5 3.75C6.50544 3.75 5.55161 4.14509 4.84835 4.84835C4.14509 5.55161 3.75 6.50544 3.75 7.5C3.75 8.49456 4.14509 9.44839 4.84835 10.1517C5.55161 10.8549 6.50544 11.25 7.5 11.25C8.49456 11.25 9.44839 10.8549 10.1517 10.1517C10.8549 9.44839 11.25 8.49456 11.25 7.5C11.25 6.50544 10.8549 5.55161 10.1517 4.84835C9.44839 4.14509 8.49456 3.75 7.5 3.75ZM12.375 3.5625C12.375 3.31386 12.2762 3.0754 12.1004 2.89959C11.9246 2.72377 11.6861 2.625 11.4375 2.625C11.1889 2.625 10.9504 2.72377 10.7746 2.89959C10.5988 3.0754 10.5 3.31386 10.5 3.5625C10.5 3.81114 10.5988 4.0496 10.7746 4.22541C10.9504 4.40123 11.1889 4.5 11.4375 4.5C11.6861 4.5 11.9246 4.40123 12.1004 4.22541C12.2762 4.0496 12.375 3.81114 12.375 3.5625ZM7.5 5.25C8.09674 5.25 8.66903 5.48705 9.09099 5.90901C9.51295 6.33097 9.75 6.90326 9.75 7.5C9.75 8.09674 9.51295 8.66903 9.09099 9.09099C8.66903 9.51295 8.09674 9.75 7.5 9.75C6.90326 9.75 6.33097 9.51295 5.90901 9.09099C5.48705 8.66903 5.25 8.09674 5.25 7.5C5.25 6.90326 5.48705 6.33097 5.90901 5.90901C6.33097 5.48705 6.90326 5.25 7.5 5.25Z" fill="white"/>
</symbol><symbol id="icon-pinterest-white" viewBox="0 0 16 15">
<path d="M8.52464 0.0700085C6.73009 -0.176851 4.90683 0.233922 3.39151 1.22648C1.8762 2.21903 0.771177 3.72633 0.280492 5.47006C-0.210193 7.21378 -0.0534017 9.07616 0.721915 10.7133C1.49723 12.3504 2.83871 13.6518 4.49864 14.377C4.45375 13.8009 4.49496 13.2213 4.62089 12.6573C4.75964 12.028 5.59289 8.56001 5.59289 8.56001C5.42697 8.18808 5.34405 7.78448 5.34989 7.37726C5.34989 6.26351 5.99264 5.43251 6.79214 5.43251C6.93577 5.43042 7.07817 5.45928 7.20965 5.51713C7.34113 5.57498 7.45861 5.66047 7.5541 5.76778C7.6496 5.87508 7.72087 6.00169 7.76306 6.139C7.80526 6.27631 7.81739 6.42109 7.79864 6.56351C7.79864 7.23851 7.36514 8.26001 7.13864 9.21851C7.09388 9.39429 7.09104 9.57814 7.13035 9.75522C7.16966 9.93231 7.25002 10.0977 7.36496 10.238C7.4799 10.3783 7.6262 10.4897 7.79207 10.5631C7.95793 10.6366 8.13873 10.67 8.31989 10.6608C9.74339 10.6608 10.6974 8.83751 10.6974 6.68501C10.6974 5.03501 9.60464 3.79901 7.59014 3.79901C7.10817 3.78028 6.62743 3.8597 6.17709 4.03245C5.72676 4.2052 5.31623 4.46767 4.97043 4.80392C4.62463 5.14018 4.35078 5.54321 4.16551 5.98854C3.98023 6.43387 3.8874 6.9122 3.89264 7.39451C3.87117 7.9295 4.04377 8.45423 4.37864 8.87201C4.44122 8.91872 4.48691 8.98451 4.50882 9.05946C4.53074 9.1344 4.52769 9.21444 4.50014 9.28751C4.46564 9.42551 4.37864 9.75476 4.34414 9.87551C4.33697 9.91646 4.32027 9.95515 4.29541 9.98847C4.27054 10.0218 4.2382 10.0488 4.20099 10.0673C4.16378 10.0859 4.12273 10.0954 4.08116 10.0952C4.03959 10.0949 3.99865 10.085 3.96164 10.066C2.92364 9.65051 2.43464 8.50826 2.43464 7.20401C2.43464 5.06876 4.22264 2.51276 7.80014 2.51276C10.6471 2.51276 12.5401 4.59551 12.5401 6.82301C12.5401 9.75476 10.9074 11.959 8.49464 11.959C8.13403 11.9705 7.77634 11.891 7.45464 11.7276C7.13294 11.5643 6.85762 11.3224 6.65414 11.0245C6.65414 11.0245 6.22064 12.7615 6.13514 13.09C5.96061 13.6575 5.70307 14.1961 5.37089 14.6883C6.06314 14.8983 6.78239 15.0033 7.50539 15.0003C8.49058 15.001 9.46624 14.8075 10.3765 14.4307C11.2868 14.0539 12.1138 13.5012 12.8102 12.8043C13.5066 12.1075 14.0587 11.2801 14.4348 10.3695C14.811 9.45899 15.0039 8.48319 15.0024 7.49801C15.0015 5.68676 14.3452 3.937 13.1549 2.57184C11.9645 1.20668 10.3204 0.318307 8.52614 0.0707584L8.52464 0.0700085Z" fill="white"/>
</symbol><symbol id="icon-search-black" viewBox="0 0 14 14">
<path d="M11.0482 10.0737L14 13.0248L13.0248 14L10.0737 11.0482C8.9757 11.9285 7.60993 12.4072 6.20262 12.4052C2.77877 12.4052 0 9.62646 0 6.20262C0 2.77877 2.77877 0 6.20262 0C9.62646 0 12.4052 2.77877 12.4052 6.20262C12.4072 7.60993 11.9285 8.9757 11.0482 10.0737ZM9.66575 9.56237C10.5404 8.66291 11.0289 7.45722 11.0269 6.20262C11.0269 3.53687 8.86768 1.37836 6.20262 1.37836C3.53687 1.37836 1.37836 3.53687 1.37836 6.20262C1.37836 8.86768 3.53687 11.0269 6.20262 11.0269C7.45722 11.0289 8.66291 10.5404 9.56237 9.66575L9.66575 9.56237Z" fill="black"/>
</symbol><symbol id="icon-search-white" viewBox="0 0 16 16">
<path d="M12.6266 11.5128L16 14.8855L14.8855 16L11.5128 12.6266C10.2579 13.6325 8.69706 14.1797 7.08871 14.1774C3.17574 14.1774 0 11.0017 0 7.08871C0 3.17574 3.17574 0 7.08871 0C11.0017 0 14.1774 3.17574 14.1774 7.08871C14.1797 8.69706 13.6325 10.2579 12.6266 11.5128ZM11.0466 10.9284C12.0462 9.90047 12.6044 8.52254 12.6021 7.08871C12.6021 4.04214 10.1345 1.57527 7.08871 1.57527C4.04214 1.57527 1.57527 4.04214 1.57527 7.08871C1.57527 10.1345 4.04214 12.6021 7.08871 12.6021C8.52254 12.6044 9.90047 12.0462 10.9284 11.0466L11.0466 10.9284Z" fill="white"/>
</symbol><symbol id="icon-twitter-white" viewBox="0 0 15 13">
<path d="M14.9993 1.54324C14.4375 1.80812 13.8417 1.98209 13.2317 2.05937C13.8747 1.64947 14.3559 1.00438 14.5857 0.244297C13.9823 0.627078 13.3207 0.895338 12.6312 1.04045C12.1681 0.512227 11.5542 0.161908 10.885 0.0439529C10.2158 -0.0740019 9.52875 0.047017 8.93073 0.388195C8.33271 0.729374 7.85718 1.2716 7.57809 1.93057C7.29899 2.58954 7.23196 3.32833 7.38741 4.0321C6.16374 3.96673 4.96664 3.62777 3.87384 3.03724C2.78104 2.4467 1.81696 1.6178 1.0442 0.604331C0.770671 1.10512 0.626929 1.67441 0.627698 2.2539C0.627698 3.39126 1.17077 4.39606 1.99642 4.98435C1.50781 4.96795 1.02995 4.8273 0.602679 4.57411V4.6149C0.602826 5.37238 0.848731 6.1065 1.2987 6.69279C1.74867 7.27907 2.37501 7.68144 3.07153 7.83167C2.61795 7.96269 2.14235 7.98201 1.68073 7.88815C1.87711 8.54016 2.25987 9.11038 2.77541 9.51897C3.29095 9.92757 3.91346 10.1541 4.55578 10.1668C3.9174 10.7012 3.18645 11.0963 2.40474 11.3294C1.62303 11.5625 0.805873 11.6291 0 11.5253C1.40676 12.4897 3.04437 13.0017 4.71693 13C10.378 13 13.4738 8.0011 13.4738 3.66579C13.4738 3.5246 13.4701 3.38184 13.4642 3.24222C14.0668 2.778 14.5869 2.20293 15 1.54403L14.9993 1.54324Z" fill="white"/>
</symbol></svg>

<svg xmlns="http://www.w3.org/2000/svg" xmlns:xlink="http://www.w3.org/1999/xlink"><symbol id="icon-facebook-white"><path d="M5.333 8.625h1.905l.762-3H5.333v-1.5c0-.772 0-1.5 1.524-1.5H8V.105A21.797 21.797 0 005.823 0C3.755 0 2.286 1.243 2.286 3.525v2.1H0v3h2.286V15h3.047V8.625z" fill="#fff"/></symbol><symbol id="icon-instagram-white"><path d="M7.5 0c2.038 0 2.292.007 3.091.045.8.038 1.343.163 1.822.349.495.19.912.448 1.329.864.38.375.676.829.864 1.33.185.477.312 1.022.349 1.82.035.8.045 1.054.045 3.092 0 2.038-.008 2.292-.045 3.091-.037.8-.164 1.343-.349 1.822-.188.5-.483.954-.864 1.329a3.687 3.687 0 01-1.33.864c-.477.185-1.022.312-1.82.349-.8.035-1.054.045-3.092.045-2.038 0-2.292-.008-3.091-.045-.8-.037-1.343-.164-1.821-.349a3.668 3.668 0 01-1.33-.864 3.678 3.678 0 01-.864-1.33c-.186-.477-.311-1.022-.349-1.82C.01 9.791 0 9.537 0 7.5c0-2.038.007-2.292.045-3.091.038-.8.163-1.343.349-1.821.187-.501.483-.955.864-1.33a3.673 3.673 0 011.33-.864C3.066.208 3.608.083 4.407.045 5.208.01 5.463 0 7.5 0zm0 3.75a3.75 3.75 0 100 7.5 3.75 3.75 0 000-7.5zm4.875-.188a.938.938 0 10-1.875 0 .938.938 0 001.875 0zM7.5 5.25a2.25 2.25 0 110 4.5 2.25 2.25 0 010-4.5z" fill="#fff"/></symbol><symbol id="icon-pinterest-white"><path d="M8.525.07a7.502 7.502 0 00-4.026 14.307 5.818 5.818 0 01.122-1.72c.139-.629.972-4.097.972-4.097a2.804 2.804 0 01-.243-1.183c0-1.113.643-1.944 1.442-1.944A1 1 0 017.8 6.563c0 .676-.434 1.697-.66 2.656a1.158 1.158 0 001.18 1.442c1.424 0 2.378-1.823 2.378-3.976 0-1.65-1.092-2.886-3.107-2.886a3.56 3.56 0 00-3.697 3.596 2.22 2.22 0 00.486 1.477.36.36 0 01.121.416c-.034.138-.121.467-.156.588a.265.265 0 01-.382.19c-1.038-.415-1.527-1.558-1.527-2.862 0-2.135 1.788-4.691 5.365-4.691 2.847 0 4.74 2.083 4.74 4.31 0 2.932-1.633 5.136-4.045 5.136a2.145 2.145 0 01-1.84-.934s-.434 1.736-.52 2.065a6.021 6.021 0 01-.764 1.598c.692.21 1.411.315 2.134.312a7.493 7.493 0 007.497-7.502A7.502 7.502 0 008.526.071L8.525.07z" fill="#fff"/></symbol><symbol id="icon-search-black"><path d="M11.048 10.074L14 13.024l-.975.976-2.951-2.952A6.205 6.205 0 010 6.202 6.205 6.205 0 016.203 0a6.205 6.205 0 014.845 10.074zm-1.382-.512a4.808 4.808 0 001.36-3.36 4.823 4.823 0 00-4.823-4.824 4.822 4.822 0 00-4.825 4.825 4.823 4.823 0 004.825 4.824 4.808 4.808 0 003.36-1.361l.103-.104z" fill="#000"/></symbol><symbol id="icon-search-white"><path d="M12.627 11.513L16 14.886 14.886 16l-3.373-3.373a7.057 7.057 0 01-4.424 1.55A7.091 7.091 0 010 7.09 7.091 7.091 0 017.089 0a7.091 7.091 0 017.088 7.089 7.057 7.057 0 01-1.55 4.424zm-1.58-.585a5.495 5.495 0 001.555-3.84A5.512 5.512 0 007.09 1.576 5.511 5.511 0 001.575 7.09a5.512 5.512 0 005.514 5.513 5.495 5.495 0 003.84-1.555l.118-.119z" fill="#fff"/></symbol><symbol id="icon-twitter-white"><path d="M15 1.543a5.875 5.875 0 01-1.768.516A3.263 3.263 0 0014.586.244a5.925 5.925 0 01-1.955.796 3.025 3.025 0 00-1.746-.996 2.913 2.913 0 00-1.954.344 3.206 3.206 0 00-1.353 1.543 3.48 3.48 0 00-.19 2.101 8.318 8.318 0 01-3.514-.995A8.868 8.868 0 011.044.604a3.44 3.44 0 00-.416 1.65c0 1.137.543 2.142 1.368 2.73a2.924 2.924 0 01-1.393-.41v.04c0 .758.246 1.492.696 2.079.45.586 1.076.988 1.773 1.139-.454.13-.93.15-1.391.056a3.287 3.287 0 001.094 1.631 2.958 2.958 0 001.78.648 6.03 6.03 0 01-2.15 1.162c-.782.233-1.6.3-2.405.196A8.318 8.318 0 004.717 13c5.661 0 8.757-4.999 8.757-9.334 0-.141-.004-.284-.01-.424A6.496 6.496 0 0015 1.544z" fill="#fff"/></symbol></svg>
